src/16/actions/earthquake.svg

<svg xmlns="http://www.w3.org/2000/svg" width="16" height="16" viewBox="0 0 16 16">
 <defs>
  <style id="current-color-scheme" type="text/css">
   .ColorScheme-Text { color:#5d656b; } .ColorScheme-Highlight { color:#5294e2; }
  </style>
 </defs>
 <path style="fill:currentColor" class="ColorScheme-Text" d="M 8.1308594 1 C 8.7354194 2.5973 11.272384 9.2953219 11.271484 9.2949219 L 14.773438 7.5449219 L 14.998047 7.9921875 C 14.998047 4.1710875 11.934859 1.0717 8.1308594 1 z M 7.6445312 1.0097656 C 4.1143312 1.1867356 1.2792906 3.9730219 1.0253906 7.4824219 L 4.1855469 5.2480469 L 6.671875 10.222656 L 7.6445312 1.0097656 z M 8.2832031 4.1777344 L 7.3242188 13.761719 L 3.8105469 6.7363281 L 1.2558594 8.5429688 L 1.0078125 8.1933594 C 1.1153725 11.965359 4.2000469 14.992188 7.9980469 14.992188 C 11.669947 14.992188 14.67565 12.162806 14.96875 8.5664062 L 10.724609 10.6875 L 8.2832031 4.1777344 z"/>
</svg>

<svg xmlns="http://www.w3.org/2000/svg" width="16" height="16"><defs><style id="current-color-scheme" type="text/css"></style></defs><path d="M8.13 1l3.141 8.295 3.502-1.75.225.447A6.996 6.996 0 0 0 8.131 1zm-.485.01a6.99 6.99 0 0 0-6.62 6.472l3.16-2.234 2.487 4.975.973-9.213zm.638 3.168l-.959 9.584-3.513-7.026-2.555 1.807-.248-.35c.107 3.772 3.192 6.8 6.99 6.8a6.997 6.997 0 0 0 6.97-6.427l-4.243 2.121-2.442-6.51z" fill="currentColor" color="#5d656b"/></svg>
